!!!OTL: 1589. Geֵ¿praech der Kinder mit dem Christkinde.
!!!ARE: Europa, Mitteleuropa, Deutschland, Westfalen
!!!SCT: K1589
!!!TXL: @@DE
!!!YEM: Copyright 1995, estate of Helmut Schaffrath.
**kern	**text
*clefG2	*
*M4/4	*
*met(c)	*
*k[b-]	*
*F:	*
!LO:TX:a:t=Frage	!
{8fL	1._Wir
8gJ	.
=1	=1
4a	bit-
4a	-ten
4a	dich,
4cc	o
=2	=2
4b-/	Je-
4a	-ſu-
4g}	-lein,
{8ccL	ſchön's
8b-J	.
=3	=3
(2a	Kin-
16gqqL	.
16aqqJ)	.
2b-	-de-
=4	=4
2a	-lein,
4r}	.
{4cc	woll'ſt
=5	=5
4ff	mit
4ee	uns
4dd	re-
(8cc	-den
8ee)	ein
=6	=6
4dd	Wör-
4dd	-te-
4cc;}	-lein!
!LO:TX:a:t=Antwort	!
{4ff	Sagt's,
=7	=7
4.cc	lie-
8b-	-be
4a	Kin-
4g	-der
=8	=8
2.a;}	mein!
==	==
!!!AGN: Kinder - Lied, religioes, Gebet
!!!ONB: ESAC (Essen Associative Code) Database: KINDER
!!!AMT: simple quadruple
!!!AIN: vox
!!!EED: Helmut Schaffrath
!!!EEV: 1.0
!!Aus Westfalen. Muendlich 1855.
!!!GTL: XIII. Kindergebete und fromme Reime.
!!!URL-scan: https://archive.org/details/DeutschesKinderliedUndKinderspiel/page/323/mode/1up
!!!ENC: Anna Maria Matuszewska
!!!EEV: 2024/02/09
*-	*-
